assets/fc/fc-rating.svg

<svg xmlns="http://www.w3.org/2000/svg" width="100%" height="100%" viewBox="0 0 48 48"><circle cx="24" cy="24" r="21" fill="#F44336"/><path fill="#FFCA28" d="M24 11l3.9 7.9 8.7 1.3-6.3 6.1 1.5 8.7-7.8-4.1-7.8 4.1 1.5-8.7-6.3-6.1 8.7-1.3z"/></svg>

<svg xmlns="http://www.w3.org/2000/svg" width="100%" height="100%" viewBox="0 0 48 48"><circle cx="24" cy="24" r="21" fill="#F44336"/><path fill="#FFCA28" d="M24 11L27.9 18.9 36.6 20.2 30.3 26.3 31.8 35 24 30.9 16.2 35 17.7 26.3 11.4 20.2 20.1 18.9z"/></svg>
